evolvere-2-blue-mono/apps/16/minecraft.svg

<?xml version="1.0" encoding="UTF-8"?>
<svg width="16" height="16" version="1.1" xmlns="http://www.w3.org/2000/svg" xmlns:cc="http://creativecommons.org/ns#" xmlns:dc="http://purl.org/dc/elements/1.1/" xmlns:rdf="http://www.w3.org/1999/02/22-rdf-syntax-ns#">
	<defs>
		<style id="current-color-scheme" type="text/css">.ColorScheme-Text {color:#090d11;}.ColorScheme-Background{color:#ffffff;}</style>
	</defs>
	<metadata>
		<rdf:RDF>
			<cc:Work rdf:about="">
				<dc:format>image/svg+xml</dc:format>
				<dc:type rdf:resource="http://purl.org/dc/dcmitype/StillImage"/>
			</cc:Work>
		</rdf:RDF>
	</metadata>
	<path class="ColorScheme-Background" d="m0 0v16h16v-16h-16zm1 1h14v14h-3v-5h-2v-2h-4v2h-2v5h-3v-14zm5 7v-3h-3v3h3zm4 0h3v-3h-3v3zm-4 5h4v2h-4v-2z" style="fill-opacity:.5;fill:currentColor"/>
	<path class="ColorScheme-Text" d="m1 1v14h3v-5h2v-2h-3v-3h3v3h4v-3h3v3h-3v2h2v5h3v-14zm5 12v2h4v-2z" style="fill-opacity:.75;fill:currentColor"/>
</svg>

<?xml version="1.0" encoding="UTF-8" standalone="no"?>
<svg
   xmlns:dc="http://purl.org/dc/elements/1.1/"
   xmlns:cc="http://creativecommons.org/ns#"
   xmlns:rdf="http://www.w3.org/1999/02/22-rdf-syntax-ns#"
   xmlns:svg="http://www.w3.org/2000/svg"
   xmlns="http://www.w3.org/2000/svg"
   id="svg2"
   height="16"
   width="16"
   version="1.1">
  <defs
     id="defs4">
    <style
       id="current-color-scheme"
       type="text/css">.ColorScheme-Text {color:#090d11;}.ColorScheme-Background{color:#ffffff;}</style>
  </defs>
  <metadata
     id="metadata7">
    <rdf:RDF>
      <cc:Work
         rdf:about="">
        <dc:format>image/svg+xml</dc:format>
        <dc:type
           rdf:resource="http://purl.org/dc/dcmitype/StillImage" />
        <dc:title></dc:title>
      </cc:Work>
    </rdf:RDF>
  </metadata>
  <path
     id="rect3654"
	  class="ColorScheme-Background"
     d="M 0 0 L 0 16 L 16 16 L 16 0 L 0 0 z M 1 1 L 15 1 L 15 15 L 12 15 L 12 10 L 10 10 L 10 8 L 6 8 L 6 10 L 4 10 L 4 15 L 1 15 L 1 1 z M 6 8 L 6 5 L 3 5 L 3 8 L 6 8 z M 10 8 L 13 8 L 13 5 L 10 5 L 10 8 z M 6 13 L 10 13 L 10 15 L 6 15 L 6 13 z "
     style="fill:currentColor;fill-opacity:0.5" />
  <path
     id="path3687"
	  class="ColorScheme-Text"
     d="m 1,1 0,14 3,0 0,-5 2,0 0,-2 -3,0 0,-3 3,0 0,3 4,0 0,-3 3,0 0,3 -3,0 0,2 2,0 0,5 3,0 0,-14 z m 5,12 0,2 4,0 0,-2 z"
     style="fill:currentColor;fill-opacity:0.75" />
</svg>
